branches/nugui/src/gui/icons/basic_minus.svg

<?xml version="1.0" encoding="UTF-8" standalone="no"?>
<!-- Created with Inkscape (http://www.inkscape.org/) -->

<svg
   xmlns:dc="http://purl.org/dc/elements/1.1/"
   xmlns:cc="http://creativecommons.org/ns#"
   xmlns:rdf="http://www.w3.org/1999/02/22-rdf-syntax-ns#"
   xmlns:svg="http://www.w3.org/2000/svg"
   xmlns="http://www.w3.org/2000/svg"
   xmlns:xlink="http://www.w3.org/1999/xlink"
   xmlns:inkscape="http://www.inkscape.org/namespaces/inkscape"
   version="1.0"
   width="100"
   height="100"
   id="svg2">
  <metadata
     id="metadata2566">
    <rdf:RDF>
      <cc:Work
         rdf:about="">
        <dc:format>image/svg+xml</dc:format>
        <dc:type
           rdf:resource="http://purl.org/dc/dcmitype/StillImage" />
      </cc:Work>
    </rdf:RDF>
  </metadata>
  <defs
     id="defs4">
    <linearGradient
       id="linearGradient3197">
      <stop
         id="stop3199"
         style="stop-color:#e4e1e1;stop-opacity:1"
         offset="0" />
      <stop
         id="stop3201"
         style="stop-color:#14af00;stop-opacity:1"
         offset="1" />
    </linearGradient>
    <linearGradient
       id="linearGradient3189">
      <stop
         id="stop3191"
         style="stop-color:#000000;stop-opacity:1"
         offset="0" />
      <stop
         id="stop3193"
         style="stop-color:#000000;stop-opacity:0"
         offset="1" />
    </linearGradient>
    <radialGradient
       cx="50.059151"
       cy="48.853989"
       r="42.138134"
       fx="50.059151"
       fy="48.853989"
       id="radialGradient3136"
       xlink:href="#linearGradient3197"
       gradientUnits="userSpaceOnUse"
       gradientTransform="matrix(-3.1884564,0,0,1.870374,191.69575,8.5983288)" />
    <radialGradient
       cx="50.059151"
       cy="48.853989"
       r="42.138134"
       fx="50.059151"
       fy="48.853989"
       id="radialGradient3138"
       xlink:href="#linearGradient3189"
       gradientUnits="userSpaceOnUse"
       gradientTransform="matrix(-3.1884564,0,0,1.870374,191.69575,8.5983288)" />
  </defs>
  <g
     transform="matrix(1.5803119,0,0,1.5803119,-33.293565,-33.175508)"
     id="g3130">
    <path
       d="m 30.201316,47.321692 0,15.885962 c 3.457713,0 47.057559,-0.179233 50.425533,0 l 0,-15.885962 -50.425533,0 z"
       inkscape:connector-curvature="0"
       id="path3158"
       style="fill:#e3e4e4;fill-opacity:1;fill-rule:evenodd;stroke:#e2e2e2;stroke-width:6;stroke-linecap:round;stroke-linejoin:round;stroke-miterlimit:4;stroke-opacity:1;stroke-dasharray:none;stroke-dashoffset:0" />
    <g
       transform="translate(-7.2970865,1.932891)"
       id="g3148">
      <path
         d="m 32.08432,40.124128 0,15.885962 c 3.457713,0 47.057559,-0.179233 50.425533,0 l 0,-15.885962 -50.425533,0 z"
         inkscape:connector-curvature="0"
         id="path3242"
         style="fill:none;stroke:#000000;stroke-width:6;stroke-linecap:round;stroke-linejoin:round;stroke-miterlimit:4;stroke-opacity:1;stroke-dasharray:none;stroke-dashoffset:0" />
      <path
         d="m 32.084313,40.124128 0,15.885962 c 3.457727,0 47.057564,-0.179233 50.425542,0 l 0,-15.885962 -50.425542,0 z"
         inkscape:connector-curvature="0"
         id="path3176"
         style="fill:url(#radialGradient3136);fill-opacity:1;fill-rule:evenodd;stroke:url(#radialGradient3138);stroke-width:4.19999981;stroke-linecap:round;stroke-linejoin:round;stroke-miterlimit:4;stroke-opacity:1;stroke-dasharray:none;stroke-dashoffset:0" />
    </g>
  </g>
</svg>

<?xml version="1.0" encoding="UTF-8" standalone="no"?>
<!-- Created with Inkscape (http://www.inkscape.org/) -->
<svg
   xmlns:svg="http://www.w3.org/2000/svg"
   xmlns="http://www.w3.org/2000/svg"
   xmlns:xlink="http://www.w3.org/1999/xlink"
   version="1.0"
   width="100"
   height="100"
   id="svg2">
  <defs
     id="defs4">
    <linearGradient
       id="linearGradient3197">
      <stop
         id="stop3199"
         style="stop-color:#e4e1e1;stop-opacity:1"
         offset="0" />
      <stop
         id="stop3201"
         style="stop-color:#14af00;stop-opacity:1"
         offset="1" />
    </linearGradient>
    <linearGradient
       id="linearGradient3189">
      <stop
         id="stop3191"
         style="stop-color:#000000;stop-opacity:1"
         offset="0" />
      <stop
         id="stop3193"
         style="stop-color:#000000;stop-opacity:0"
         offset="1" />
    </linearGradient>
    <radialGradient
       cx="50.059151"
       cy="48.853989"
       r="42.138134"
       fx="50.059151"
       fy="48.853989"
       id="radialGradient3136"
       xlink:href="#linearGradient3197"
       gradientUnits="userSpaceOnUse"
       gradientTransform="matrix(-3.1884564,0,0,1.870374,191.69575,8.5983288)" />
    <radialGradient
       cx="50.059151"
       cy="48.853989"
       r="42.138134"
       fx="50.059151"
       fy="48.853989"
       id="radialGradient3138"
       xlink:href="#linearGradient3189"
       gradientUnits="userSpaceOnUse"
       gradientTransform="matrix(-3.1884564,0,0,1.870374,191.69575,8.5983288)" />
  </defs>
  <g
     transform="matrix(1.5803119,0,0,1.5803119,-33.293565,-33.175508)"
     id="g3130">
    <path
       d="M 30.201316,47.321692 L 30.201316,63.207654 C 33.659029,63.207654 77.258875,63.028421 80.626849,63.207654 L 80.626849,47.321692 L 30.201316,47.321692 z"
       id="path3158"
       style="fill:#e3e4e4;fill-opacity:1;fill-rule:evenodd;stroke:#e2e2e2;stroke-width:6;stroke-linecap:round;stroke-linejoin:round;stroke-miterlimit:4;stroke-dasharray:none;stroke-dashoffset:0;stroke-opacity:1" />
    <g
       transform="translate(-7.2970865,1.932891)"
       id="g3148">
      <path
         d="M 32.08432,40.124128 L 32.08432,56.01009 C 35.542033,56.01009 79.141879,55.830857 82.509853,56.01009 L 82.509853,40.124128 L 32.08432,40.124128 z"
         id="path3242"
         style="fill:none;stroke:#000000;stroke-width:6;stroke-linecap:round;stroke-linejoin:round;stroke-miterlimit:4;stroke-dasharray:none;stroke-dashoffset:0;stroke-opacity:1" />
      <path
         d="M 32.084313,40.124128 L 32.084313,56.01009 C 35.54204,56.01009 79.141877,55.830857 82.509855,56.01009 L 82.509855,40.124128 L 32.084313,40.124128 L 32.084313,40.124128 z"
         id="path3176"
         style="fill:url(#radialGradient3136);fill-opacity:1;fill-rule:evenodd;stroke:url(#radialGradient3138);stroke-width:4.19999981;stroke-linecap:round;stroke-linejoin:round;stroke-miterlimit:4;stroke-dasharray:none;stroke-dashoffset:0;stroke-opacity:1" />
    </g>
  </g>
</svg>
